X:1     %Music
T:The New-Fashioned Farmer
B:Everymans Book of English Country Songs, Ed Roy Palmer, ISBN 0-460-12048-4
S:John Denny, Nevinton, Essex, 25.4.1904
Z:Ralph Vaughan Williams MS II 124
M:2/4     %Meter
L:1/16     %
K:G
G2 |G2G2 G2D2 |G2G2 G2B2 |d2d2 d2c2 |
w:Good peo-ple all, I pray at-tend And list-en to my 
B2d2 z4 |e2d2 c2B2 |c2c2 B4 |A2A2 A2d2 |
w:stor-y How the farm-ers used to live In our na-tive 
B2G2 z2 G2 |G2G2 G2D2 |G2G2 G2B2 |d2d2 d2c2 |
w:count-ry (When mast-ers liv'd as mast-ers ought And hap-py in their 
A2d2 z2 d2 |e2d2 c2B2 |c2c2 B2B2 |A2A2 A2d2 |
w:stat-ion Un-til at length their stink-ing pride Has ruin-'d half the 
B2G2 z4 |B3G G2D2 |A3B c2A2 |F2G2 z4 |]
w:na-tion) Fol del lol lol, fol de lol lol li-do 